flaticon/fitness/gym-2.svg

<svg xmlns="http://www.w3.org/2000/svg" width="32" height="32" viewBox="0 0 24 24">
    <path d="M 22.355469 3.402344 C 20.714844 1.679688 18.992188 0.800781 17.105469 0.800781 C 15.023438 0.800781 13.101562 2.082031 11.976562 4.207031 C 10.894531 2.082031 8.972656 0.800781 6.886719 0.800781 C 5.042969 0.800781 3.320312 1.640625 1.636719 3.402344 C -0.246094 5.40625 -1.085938 10.015625 2.359375 13.460938 C 4.003906 15.105469 11.65625 23 11.738281 23.082031 C 11.816406 23.160156 11.898438 23.199219 12.019531 23.199219 C 12.097656 23.199219 12.21875 23.160156 12.296875 23.082031 C 12.378906 23 19.992188 15.105469 21.636719 13.460938 C 23.597656 11.460938 24 9.335938 24 7.890625 C 24 6.167969 23.359375 4.484375 22.355469 3.402344 Z M 21.074219 12.902344 C 19.632812 14.34375 13.421875 20.757812 12.019531 22.238281 C 10.613281 20.796875 4.402344 14.34375 2.960938 12.902344 C -0.125 9.816406 0.554688 5.726562 2.238281 3.964844 C 3.722656 2.363281 5.246094 1.601562 6.886719 1.601562 C 8.890625 1.601562 10.695312 3.042969 11.617188 5.328125 C 11.65625 5.449219 11.816406 5.566406 11.976562 5.566406 C 12.136719 5.566406 12.296875 5.488281 12.339844 5.328125 C 13.261719 3.042969 15.0625 1.601562 17.105469 1.601562 C 18.75 1.601562 20.3125 2.402344 21.796875 3.964844 C 23.4375 5.726562 24.121094 9.855469 21.074219 12.902344 Z M 21.074219 12.902344"/>
    <path d="M 17.789062 7.972656 C 17.546875 7.972656 17.320312 8.035156 17.117188 8.148438 C 16.933594 7.589844 16.398438 7.171875 15.785156 7.171875 C 15.023438 7.171875 14.382812 7.8125 14.382812 8.574219 L 14.382812 9.214844 L 9.574219 9.214844 L 9.574219 8.574219 C 9.574219 7.8125 8.933594 7.171875 8.171875 7.171875 C 7.554688 7.171875 7.019531 7.589844 6.835938 8.148438 C 6.636719 8.035156 6.40625 7.972656 6.167969 7.972656 C 5.40625 7.972656 4.765625 8.613281 4.765625 9.375 L 4.765625 11.378906 C 4.765625 12.140625 5.40625 12.78125 6.167969 12.78125 C 6.410156 12.78125 6.636719 12.722656 6.839844 12.613281 C 7.027344 13.167969 7.558594 13.582031 8.171875 13.582031 C 8.933594 13.582031 9.574219 12.980469 9.574219 12.179688 L 9.574219 11.621094 L 14.382812 11.621094 L 14.382812 12.179688 C 14.382812 12.941406 15.023438 13.582031 15.785156 13.582031 C 16.402344 13.582031 16.941406 13.1875 17.121094 12.609375 C 17.320312 12.71875 17.550781 12.78125 17.789062 12.78125 C 18.550781 12.78125 19.191406 12.179688 19.191406 11.378906 L 19.191406 9.375 C 19.191406 8.613281 18.550781 7.972656 17.789062 7.972656 Z M 6.167969 11.980469 C 5.847656 11.980469 5.566406 11.699219 5.566406 11.378906 L 5.566406 9.375 C 5.566406 9.054688 5.847656 8.773438 6.167969 8.773438 C 6.488281 8.773438 6.769531 9.054688 6.769531 9.375 L 6.769531 11.378906 C 6.769531 11.699219 6.488281 11.980469 6.167969 11.980469 Z M 8.773438 12.179688 C 8.773438 12.5 8.492188 12.78125 8.171875 12.78125 C 7.851562 12.78125 7.570312 12.5 7.570312 12.179688 L 7.570312 8.574219 C 7.570312 8.253906 7.851562 7.972656 8.171875 7.972656 C 8.492188 7.972656 8.773438 8.253906 8.773438 8.574219 Z M 9.574219 10.816406 L 9.574219 10.015625 L 14.382812 10.015625 L 14.382812 10.816406 Z M 16.386719 12.179688 C 16.386719 12.5 16.105469 12.78125 15.785156 12.78125 C 15.464844 12.78125 15.183594 12.5 15.183594 12.179688 L 15.183594 8.574219 C 15.183594 8.253906 15.464844 7.972656 15.785156 7.972656 C 16.105469 7.972656 16.386719 8.253906 16.386719 8.574219 Z M 18.390625 11.378906 C 18.390625 11.699219 18.109375 11.980469 17.789062 11.980469 C 17.46875 11.980469 17.1875 11.699219 17.1875 11.378906 L 17.1875 9.375 C 17.1875 9.054688 17.46875 8.773438 17.789062 8.773438 C 18.109375 8.773438 18.390625 9.054688 18.390625 9.375 Z M 18.390625 11.378906"/>
</svg>

<svg xmlns="http://www.w3.org/2000/svg" width="32" height="32" viewBox="0 0 24 24">
    <path d="M22.355 3.402C20.715 1.68 18.992.801 17.105.801c-2.082 0-4.003 1.281-5.128 3.406C10.895 2.082 8.973.801 6.887.801c-1.844 0-3.567.84-5.25 2.601-1.883 2.004-2.723 6.614.722 10.059 1.645 1.644 9.297 9.539 9.38 9.621.077.078.16.117.28.117.079 0 .2-.039.278-.117.082-.082 7.695-7.977 9.34-9.621 1.96-2 2.363-4.125 2.363-5.57 0-1.723-.64-3.407-1.645-4.489zm-1.28 9.5c-1.442 1.442-7.653 7.856-9.055 9.336-1.407-1.441-7.618-7.894-9.06-9.336C-.124 9.816.556 5.727 2.239 3.965c1.485-1.602 3.008-2.363 4.649-2.363 2.004 0 3.808 1.441 4.73 3.726.04.121.2.238.36.238.16 0 .32-.078.363-.238.922-2.285 2.723-3.726 4.765-3.726 1.645 0 3.207.8 4.692 2.363 1.64 1.762 2.324 5.89-.723 8.937zm0 0"/>
    <path d="M17.79 7.973c-.243 0-.47.062-.673.175a1.423 1.423 0 0 0-1.332-.976c-.762 0-1.402.64-1.402 1.402v.64H9.574v-.64c0-.761-.64-1.402-1.402-1.402-.617 0-1.152.418-1.336.976-.2-.113-.43-.175-.668-.175-.762 0-1.402.64-1.402 1.402v2.004c0 .762.64 1.402 1.402 1.402.242 0 .469-.058.672-.168.187.555.719.969 1.332.969.762 0 1.402-.602 1.402-1.402v-.559h4.809v.559c0 .761.64 1.402 1.402 1.402.617 0 1.156-.395 1.336-.973.2.11.43.172.668.172.762 0 1.402-.601 1.402-1.402V9.375c0-.762-.64-1.402-1.402-1.402zM6.167 11.98a.618.618 0 0 1-.602-.601V9.375c0-.32.282-.602.602-.602s.602.282.602.602v2.004c0 .32-.282.601-.602.601zm2.605.2c0 .32-.28.601-.601.601a.618.618 0 0 1-.602-.601V8.574c0-.32.282-.601.602-.601s.601.28.601.601zm.801-1.364v-.8h4.809v.8zm6.813 1.364c0 .32-.282.601-.602.601a.618.618 0 0 1-.601-.601V8.574c0-.32.28-.601.601-.601.32 0 .602.28.602.601zm2.004-.801c0 .32-.282.601-.602.601a.618.618 0 0 1-.602-.601V9.375c0-.32.282-.602.602-.602s.602.282.602.602zm0 0"/>
</svg>
